X:63
T: Török búza, édes málé...
K: Bb
M: 2/4
L: 1/4
g d | g a | g/ (gf/) | 
ag | fe | d/d/ z | 
f/g/f/d/ | c f | c (B/d/) | 
f/d/c/d/ | B A | G/G/ z | 

